Adwaita++-Light/panel/22/network-wireless-acquiring.svg

<svg height="22" width="22" xmlns="http://www.w3.org/2000/svg">
  <g fill="#444">
    <path d="m8 11a2 2 0 0 1 -2 2 2 2 0 0 1 -2-2 2 2 0 0 1 2-2 2 2 0 0 1 2 2z"/>
    <path d="m13 11a2 2 0 0 1 -2 2 2 2 0 0 1 -2-2 2 2 0 0 1 2-2 2 2 0 0 1 2 2z"/>
    <path d="m18 11a2 2 0 0 1 -2 2 2 2 0 0 1 -2-2 2 2 0 0 1 2-2 2 2 0 0 1 2 2z"/>
    <path d="m11 4c-3.0506 0-5.9194 1.0732-8 3l.7265625 1h14.5468755l.726562-1c-2.081-1.9269-4.949-3-8-3zm-2.9082031 10 2.9082031 4 2.908203-4z" opacity=".3"/>
  </g>
</svg>

<svg xmlns="http://www.w3.org/2000/svg" width="22" height="22" version="1.1">
 <defs>
  <style id="current-color-scheme" type="text/css">
   .ColorScheme-Text { color:#444444; } .ColorScheme-Highlight { color:#4285f4; }
  </style>
 </defs>
 <path style="fill:currentColor" class="ColorScheme-Text" d="M 8,11 A 2,2 0 0 1 6,13 2,2 0 0 1 4,11 2,2 0 0 1 6,9 2,2 0 0 1 8,11 Z"/>
 <path style="fill:currentColor" class="ColorScheme-Text" d="m 13,11 a 2,2 0 0 1 -2,2 2,2 0 0 1 -2,-2 2,2 0 0 1 2,-2 2,2 0 0 1 2,2 z"/>
 <path style="fill:currentColor" class="ColorScheme-Text" d="m 18,11 a 2,2 0 0 1 -2,2 2,2 0 0 1 -2,-2 2,2 0 0 1 2,-2 2,2 0 0 1 2,2 z"/>
 <path style="opacity:0.3;fill:currentColor" class="ColorScheme-Text" d="M 11,4 C 7.9494,4 5.0806,5.0732 3,7 L 3.7265625,8 H 18.273438 L 19,7 C 16.919,5.0731 14.051,4 11,4 Z M 8.0917969,14 11,18 13.908203,14 Z"/>
</svg>
